docs/assets/agentplane.svg

<svg fill="none" height="64" viewBox="0 0 320 64" width="320" xmlns="http://www.w3.org/2000/svg"><g fill="#000"><path d="m18.2234 47.8367c-3.009 0-5.4742-.6893-7.3957-2.068-1.88512-1.415-2.8277-3.3741-2.8277-5.8775 0-2.576.79757-4.5533 2.3927-5.932 1.6314-1.415 4.0241-2.449 7.1781-3.1021l9.4077-1.8503c0-1.8866-.4351-3.3016-1.3051-4.2449-.8338-.9796-2.0483-1.4694-3.6435-1.4694-1.5588 0-2.7733.3628-3.6434 1.0885-.8701.6893-1.432 1.7233-1.6858 3.102l-8.21128-.381c.54379-3.1927 1.97578-5.6054 4.29598-7.2381 2.3565-1.6689 5.438-2.5034 9.2445-2.5034 4.3504 0 7.6132 1.0341 9.7884 3.1021 2.2114 2.068 3.3171 5.0975 3.3171 9.0884v9.9592c0 .8345.1269 1.3968.3807 1.6871.29.2539.7069.3809 1.2507.3809h.8157v5.6055c-.2538.0725-.6707.1451-1.2507.2177-.5438.0725-1.0876.1088-1.6314.1088-1.1601 0-2.2477-.1995-3.2628-.5986-.9788-.3991-1.7764-1.0703-2.3927-2.0136-.6163-.9796-.9244-2.3583-.9244-4.1361l.7069.5442c-.3625 1.3061-1.0151 2.449-1.9577 3.4286-.9063.9796-2.1026 1.7415-3.589 2.2857-1.4501.5442-3.1359.8163-5.0573.8163zm1.9576-5.6054c1.3414 0 2.5196-.254 3.5347-.7619 1.0151-.5442 1.8127-1.3243 2.3927-2.3401.5801-1.0159.8701-2.2132.8701-3.5919v-1.415l-6.6343 1.415c-1.3051.254-2.3021.6894-2.9909 1.3061-.6526.5805-.9788 1.3424-.9788 2.2858 0 .9795.3262 1.7414.9788 2.2857.6526.5442 1.5951.8163 2.8277.8163z"/><path d="m53.2974 56c-2.7915 0-5.1298-.3447-7.015-1.034-1.8489-.6894-3.3353-1.6508-4.4591-2.8844-1.0876-1.2335-1.8489-2.6485-2.284-4.2449l8.3745-.5986c.29.9433.8338 1.6871 1.6314 2.2313.8338.5442 2.0845.8163 3.7522.8163 1.9576 0 3.444-.4716 4.4591-1.415 1.0513-.907 1.577-2.3764 1.577-4.4081v-3.1021c-.6888 1.3424-1.7945 2.4309-3.3171 3.2653-1.5227.7982-3.2266 1.1973-5.1117 1.1973-2.3927 0-4.5135-.5805-6.3624-1.7415-1.849-1.1972-3.2991-2.848-4.3504-4.9523-1.0151-2.1406-1.5226-4.644-1.5226-7.5103 0-2.7936.5075-5.2607 1.5226-7.4013 1.0513-2.1406 2.4833-3.8095 4.296-5.0068 1.8489-1.2336 3.9516-1.8504 6.308-1.8504 2.1389 0 3.9335.4717 5.3836 1.415 1.4864.9433 2.6102 2.195 3.3715 3.7551v-4.517h7.9938v26.2857c0 2.6123-.5981 4.771-1.7945 6.4762-1.1963 1.7415-2.864 3.0476-5.0029 3.9184-2.139.8707-4.6223 1.3061-7.45 1.3061zm-.0544-16.2177c1.8852 0 3.3715-.7256 4.4591-2.1769 1.1239-1.4512 1.6858-3.4648 1.6858-6.0408 0-1.7052-.2538-3.1746-.7613-4.4081-.4713-1.2336-1.1782-2.1769-2.1208-2.83-.9064-.653-1.994-.9796-3.2628-.9796-1.9577 0-3.4803.7438-4.5679 2.2313-1.0876 1.4876-1.6314 3.483-1.6314 5.9864 0 2.5397.5619 4.5533 1.6858 6.0408 1.1238 1.4513 2.6283 2.1769 4.5135 2.1769z"/><path d="m86.1983 47.8367c-2.9727 0-5.5648-.6167-7.7763-1.8503-2.1752-1.2698-3.879-3.0476-5.1117-5.3333-1.1963-2.2858-1.7945-4.9706-1.7945-8.0545s.5982-5.7505 1.7945-8c1.2327-2.2857 2.9365-4.0635 5.1117-5.3333s4.7492-1.9048 7.7219-1.9048c2.9003 0 5.4199.635 7.5588 1.9048s3.7885 3.0839 4.9486 5.4422c1.1963 2.3583 1.7947 5.1701 1.7947 8.4354v1.6326h-20.5013c.1087 2.322.725 4.0454 1.8489 5.1701 1.1601 1.1247 2.6827 1.6871 4.5679 1.6871 1.3776 0 2.5195-.2903 3.4259-.8708.9425-.5805 1.6132-1.4694 2.012-2.6667l8.2116.4898c-.7616 2.9025-2.3748 5.1701-4.84 6.8028-2.4653 1.6326-5.4561 2.4489-8.9727 2.4489zm-6.2536-18.068h12.1266c-.1087-2.1406-.7069-3.737-1.7945-4.7891-1.0514-1.0522-2.429-1.5782-4.1329-1.5782s-3.1177.5623-4.2416 1.687c-1.0876 1.0885-1.7401 2.6486-1.9576 4.6803z"/><path d="m104.399 47.1837v-29.1701h7.342l.326 8.5442-1.033-.2721c.29-2.1769.87-3.9184 1.74-5.2245.906-1.3061 2.03-2.2494 3.371-2.8299 1.342-.5805 2.81-.8708 4.405-.8708 2.103 0 3.879.4536 5.329 1.3606 1.487.907 2.611 2.195 3.372 3.8639.797 1.6327 1.196 3.5737 1.196 5.8232v18.7755h-8.157v-16.0544c0-1.5601-.127-2.8844-.38-3.9728-.254-1.0885-.707-1.9048-1.36-2.449-.652-.5805-1.559-.8708-2.719-.8708-1.704 0-3.009.635-3.915 1.9048-.907 1.2336-1.36 3.0295-1.36 5.3878v16.0544z"/><path d="m146.716 47.1837c-3.009 0-5.22-.6894-6.634-2.0681-1.414-1.4149-2.121-3.6462-2.121-6.6938v-27.2653h8.157v26.2857c0 1.4149.29 2.3764.87 2.8843.616.508 1.523.7619 2.719.7619h4.078v6.0953zm-13.432-23.0749v-6.0952h20.501v6.0952z"/><path d="m169.384 8h6.58l-10.441 39.1837h-6.58z"/><path d="m182.197 55.3469v-37.1156h5.438l.163 6.2041-.652-.3266c.725-2.1405 1.921-3.7551 3.589-4.8435 1.667-1.1247 3.589-1.6871 5.764-1.6871 2.828 0 5.148.7075 6.96 2.1225 1.849 1.3787 3.209 3.2109 4.079 5.4966.906 2.2857 1.359 4.7891 1.359 7.5102s-.453 5.2245-1.359 7.5102c-.87 2.2857-2.23 4.136-4.079 5.551-1.812 1.3787-4.132 2.068-6.96 2.068-1.45 0-2.81-.2539-4.079-.7619-1.268-.5079-2.356-1.2154-3.262-2.1224-.87-.9433-1.487-2.0499-1.849-3.3197l.652-.6531v14.3673zm13.269-12.517c2.32 0 4.133-.8889 5.438-2.6666 1.341-1.7778 2.012-4.2631 2.012-7.4558 0-3.1928-.671-5.678-2.012-7.4558-1.305-1.7778-3.118-2.6667-5.438-2.6667-1.523 0-2.846.381-3.97 1.1429-1.124.7256-1.994 1.8503-2.61 3.3741-.617 1.5238-.925 3.3923-.925 5.6055 0 2.2131.29 4.0816.87 5.6054.617 1.5238 1.487 2.6667 2.611 3.4286 1.16.7256 2.501 1.0884 4.024 1.0884z"/><path d="m220.236 47.1837c-1.885 0-3.407-.4898-4.567-1.4694-1.161-.9796-1.741-2.5397-1.741-4.6803v-32.48978h5.765v31.94558c0 .6531.163 1.1429.489 1.4694.363.3265.87.4898 1.523.4898h2.284v4.7347z"/><path d="m236.238 47.8367c-3.009 0-5.42-.6893-7.233-2.068-1.776-1.3787-2.664-3.3197-2.664-5.8231s.743-4.4445 2.229-5.8232c1.523-1.4149 3.861-2.4308 7.015-3.0476l9.952-1.9047c0-2.2495-.526-3.9184-1.577-5.0068-1.052-1.1248-2.611-1.6871-4.677-1.6871-1.849 0-3.299.4172-4.35 1.2517-1.052.7982-1.777 1.9955-2.176 3.5918l-5.927-.3809c.544-2.9025 1.885-5.1882 4.024-6.8572 2.175-1.6689 4.985-2.5034 8.429-2.5034 3.915 0 6.888 1.0522 8.918 3.1565 2.067 2.068 3.1 4.9887 3.1 8.7619v11.2653c0 .6893.109 1.1791.326 1.4694.254.254.653.3809 1.196.3809h1.034v4.5715c-.182.0363-.472.0725-.87.1088-.399.0363-.816.0544-1.251.0544-1.233 0-2.302-.1995-3.209-.5986-.87-.3991-1.522-1.0522-1.957-1.9592-.435-.9433-.653-2.195-.653-3.7551l.598.2721c-.29 1.2699-.924 2.3946-1.903 3.3742-.942.9796-2.157 1.7596-3.643 2.3401-1.45.5442-3.027.8163-4.731.8163zm.924-4.5714c1.74 0 3.227-.3265 4.459-.9796 1.233-.6893 2.194-1.6326 2.882-2.8299.689-1.1973 1.034-2.5578 1.034-4.0817v-1.8503l-8.484 1.6327c-1.74.3265-2.972.8526-3.697 1.5782-.689.6893-1.034 1.5782-1.034 2.6667 0 1.2335.417 2.195 1.251 2.8843.87.6531 2.066.9796 3.589.9796z"/><path d="m257.636 47.1837v-28.9524h5.275l.217 7.7279-.707-.381c.327-1.8866.943-3.4104 1.849-4.5714.907-1.161 2.012-2.0136 3.317-2.5578 1.306-.5805 2.719-.8708 4.242-.8708 2.175 0 3.97.4898 5.384 1.4694 1.45.9433 2.537 2.2495 3.262 3.9184.762 1.6326 1.142 3.5011 1.142 5.6054v18.6123h-5.764v-16.8708c0-1.7052-.181-3.1383-.544-4.2993-.362-1.161-.96-2.0499-1.794-2.6667-.834-.6167-1.922-.9251-3.263-.9251-2.03 0-3.68.6712-4.948 2.0136-1.269 1.3424-1.904 3.3016-1.904 5.8775v16.8708z"/><path d="m299.949 47.8367c-2.828 0-5.275-.6167-7.341-1.8503-2.031-1.2336-3.608-2.9932-4.731-5.2789-1.088-2.2857-1.632-4.9524-1.632-8s.544-5.6962 1.632-7.9456c1.123-2.2857 2.7-4.0453 4.731-5.2789 2.03-1.2698 4.423-1.9048 7.178-1.9048 2.61 0 4.912.6168 6.906 1.8504 1.994 1.1972 3.535 2.9387 4.622 5.2245 1.124 2.2857 1.686 5.043 1.686 8.2721v1.4694h-20.773c.145 2.8299.888 4.9523 2.23 6.3673 1.377 1.415 3.226 2.1225 5.546 2.1225 1.704 0 3.118-.3991 4.242-1.1973s1.903-1.8685 2.338-3.2109l5.982.3809c-.761 2.6849-2.266 4.8617-4.514 6.5307-2.211 1.6326-4.912 2.4489-8.102 2.4489zm-7.722-17.7959h14.682c-.181-2.5759-.924-4.4807-2.229-5.7143-1.269-1.2335-2.9-1.8503-4.894-1.8503-2.067 0-3.771.6531-5.112 1.9592-1.305 1.2698-2.121 3.1383-2.447 5.6054z"/></g></svg>

<svg width="320" height="64" viewBox="0 0 320 64" fill="none" xmlns="http://www.w3.org/2000/svg">
<path d="M18.2234 47.8367C15.2144 47.8367 12.7492 47.1474 10.8277 45.7687C8.94258 44.3537 8 42.3946 8 39.8912C8 37.3152 8.79757 35.3379 10.3927 33.9592C12.0241 32.5442 14.4168 31.5102 17.5708 30.8571L26.9785 29.0068C26.9785 27.1202 26.5434 25.7052 25.6734 24.7619C24.8396 23.7823 23.6251 23.2925 22.0299 23.2925C20.4711 23.2925 19.2566 23.6553 18.3865 24.381C17.5164 25.0703 16.9545 26.1043 16.7007 27.483L8.48942 27.102C9.03321 23.9093 10.4652 21.4966 12.7854 19.8639C15.1419 18.195 18.2234 17.3605 22.0299 17.3605C26.3803 17.3605 29.6431 18.3946 31.8183 20.4626C34.0297 22.5306 35.1354 25.5601 35.1354 29.551V39.5102C35.1354 40.3447 35.2623 40.907 35.5161 41.1973C35.8061 41.4512 36.223 41.5782 36.7668 41.5782H37.5825V47.1837C37.3287 47.2562 36.9118 47.3288 36.3318 47.4014C35.788 47.4739 35.2442 47.5102 34.7004 47.5102C33.5403 47.5102 32.4527 47.3107 31.4376 46.9116C30.4588 46.5125 29.6612 45.8413 29.0449 44.898C28.4286 43.9184 28.1205 42.5397 28.1205 40.7619L28.8274 41.3061C28.4649 42.6122 27.8123 43.7551 26.8697 44.7347C25.9634 45.7143 24.7671 46.4762 23.2807 47.0204C21.8306 47.5646 20.1448 47.8367 18.2234 47.8367ZM20.181 42.2313C21.5224 42.2313 22.7006 41.9773 23.7157 41.4694C24.7308 40.9252 25.5284 40.1451 26.1084 39.1293C26.6885 38.1134 26.9785 36.9161 26.9785 35.5374V34.1224L20.3442 35.5374C19.0391 35.7914 18.0421 36.2268 17.3533 36.8435C16.7007 37.424 16.3745 38.1859 16.3745 39.1293C16.3745 40.1088 16.7007 40.8707 17.3533 41.415C18.0059 41.9592 18.9484 42.2313 20.181 42.2313Z" fill="black"/>
<path d="M53.2974 56C50.5059 56 48.1676 55.6553 46.2824 54.966C44.4335 54.2766 42.9471 53.3152 41.8233 52.0816C40.7357 50.8481 39.9744 49.4331 39.5393 47.8367L47.9138 47.2381C48.2038 48.1814 48.7476 48.9252 49.5452 49.4694C50.379 50.0136 51.6297 50.2857 53.2974 50.2857C55.255 50.2857 56.7414 49.8141 57.7565 48.8707C58.8078 47.9637 59.3335 46.4943 59.3335 44.4626V41.3605C58.6447 42.7029 57.539 43.7914 56.0164 44.6258C54.4937 45.424 52.7898 45.8231 50.9047 45.8231C48.512 45.8231 46.3912 45.2426 44.5423 44.0816C42.6933 42.8844 41.2432 41.2336 40.1919 39.1293C39.1768 36.9887 38.6693 34.4853 38.6693 31.619C38.6693 28.8254 39.1768 26.3583 40.1919 24.2177C41.2432 22.0771 42.6752 20.4082 44.4879 19.2109C46.3368 17.9773 48.4395 17.3605 50.7959 17.3605C52.9348 17.3605 54.7294 17.8322 56.1795 18.7755C57.6659 19.7188 58.7897 20.9705 59.551 22.5306V18.0136H67.5448V44.2993C67.5448 46.9116 66.9467 49.0703 65.7503 50.7755C64.554 52.517 62.8863 53.8231 60.7474 54.6939C58.6084 55.5646 56.1251 56 53.2974 56ZM53.243 39.7823C55.1282 39.7823 56.6145 39.0567 57.7021 37.6054C58.826 36.1542 59.3879 34.1406 59.3879 31.5646C59.3879 29.8594 59.1341 28.39 58.6266 27.1565C58.1553 25.9229 57.4484 24.9796 56.5058 24.3265C55.5994 23.6735 54.5118 23.3469 53.243 23.3469C51.2853 23.3469 49.7627 24.0907 48.6751 25.5782C47.5875 27.0658 47.0437 29.0612 47.0437 31.5646C47.0437 34.1043 47.6056 36.1179 48.7295 37.6054C49.8533 39.0567 51.3578 39.7823 53.243 39.7823Z" fill="black"/>
<path d="M86.1983 47.8367C83.2256 47.8367 80.6335 47.22 78.422 45.9864C76.2468 44.7166 74.543 42.9388 73.3103 40.6531C72.114 38.3673 71.5158 35.6825 71.5158 32.5986C71.5158 29.5147 72.114 26.8481 73.3103 24.5986C74.543 22.3129 76.2468 20.5351 78.422 19.2653C80.5972 17.9955 83.1712 17.3605 86.1439 17.3605C89.0442 17.3605 91.5638 17.9955 93.7027 19.2653C95.8416 20.5351 97.4912 22.3492 98.6513 24.7075C99.8476 27.0658 100.446 29.8776 100.446 33.1429V34.7755H79.9447C80.0534 37.0975 80.6697 38.8209 81.7936 39.9456C82.9537 41.0703 84.4763 41.6327 86.3615 41.6327C87.7391 41.6327 88.881 41.3424 89.7874 40.7619C90.7299 40.1814 91.4006 39.2925 91.7994 38.0952L100.011 38.585C99.2494 41.4875 97.6362 43.7551 95.171 45.3878C92.7057 47.0204 89.7149 47.8367 86.1983 47.8367ZM79.9447 29.7687H92.0713C91.9626 27.6281 91.3644 26.0317 90.2768 24.9796C89.2254 23.9274 87.8478 23.4014 86.1439 23.4014C84.44 23.4014 83.0262 23.9637 81.9023 25.0884C80.8147 26.1769 80.1622 27.737 79.9447 29.7687Z" fill="black"/>
<path d="M104.399 47.1837V18.0136H111.741L112.067 26.5578L111.034 26.2857C111.324 24.1088 111.904 22.3673 112.774 21.0612C113.68 19.7551 114.804 18.8118 116.145 18.2313C117.487 17.6508 118.955 17.3605 120.55 17.3605C122.653 17.3605 124.429 17.8141 125.879 18.7211C127.366 19.6281 128.49 20.9161 129.251 22.585C130.048 24.2177 130.447 26.1587 130.447 28.4082V47.1837H122.29V31.1293C122.29 29.5692 122.163 28.2449 121.91 27.1565C121.656 26.068 121.203 25.2517 120.55 24.7075C119.898 24.127 118.991 23.8367 117.831 23.8367C116.127 23.8367 114.822 24.4717 113.916 25.7415C113.009 26.9751 112.556 28.771 112.556 31.1293V47.1837H104.399Z" fill="black"/>
<path d="M146.716 47.1837C143.707 47.1837 141.496 46.4943 140.082 45.1156C138.668 43.7007 137.961 41.4694 137.961 38.4218V11.1565H146.118V37.4422C146.118 38.8571 146.408 39.8186 146.988 40.3265C147.604 40.8345 148.511 41.0884 149.707 41.0884H153.785V47.1837H146.716ZM133.284 24.1088V18.0136H153.785V24.1088H133.284Z" fill="black"/>
<path d="M169.384 8H175.964L165.523 47.1837H158.943L169.384 8Z" fill="black"/>
<path d="M182.197 55.3469V18.2313H187.635L187.798 24.4354L187.146 24.1088C187.871 21.9683 189.067 20.3537 190.735 19.2653C192.402 18.1406 194.324 17.5782 196.499 17.5782C199.327 17.5782 201.647 18.2857 203.459 19.7007C205.308 21.0794 206.668 22.9116 207.538 25.1973C208.444 27.483 208.897 29.9864 208.897 32.7075C208.897 35.4286 208.444 37.932 207.538 40.2177C206.668 42.5034 205.308 44.3537 203.459 45.7687C201.647 47.1474 199.327 47.8367 196.499 47.8367C195.049 47.8367 193.689 47.5828 192.42 47.0748C191.152 46.5669 190.064 45.8594 189.158 44.9524C188.288 44.0091 187.671 42.9025 187.309 41.6327L187.961 40.9796V55.3469H182.197ZM195.466 42.8299C197.786 42.8299 199.599 41.941 200.904 40.1633C202.245 38.3855 202.916 35.9002 202.916 32.7075C202.916 29.5147 202.245 27.0295 200.904 25.2517C199.599 23.4739 197.786 22.585 195.466 22.585C193.943 22.585 192.62 22.966 191.496 23.7279C190.372 24.4535 189.502 25.5782 188.886 27.102C188.269 28.6258 187.961 30.4943 187.961 32.7075C187.961 34.9206 188.251 36.7891 188.831 38.3129C189.448 39.8367 190.318 40.9796 191.442 41.7415C192.602 42.4671 193.943 42.8299 195.466 42.8299Z" fill="black"/>
<path d="M220.236 47.1837C218.351 47.1837 216.829 46.6939 215.669 45.7143C214.508 44.7347 213.928 43.1746 213.928 41.034V8.54422H219.693V40.4898C219.693 41.1429 219.856 41.6327 220.182 41.9592C220.545 42.2857 221.052 42.449 221.705 42.449H223.989V47.1837H220.236Z" fill="black"/>
<path d="M236.238 47.8367C233.229 47.8367 230.818 47.1474 229.005 45.7687C227.229 44.39 226.341 42.449 226.341 39.9456C226.341 37.4422 227.084 35.5011 228.57 34.1224C230.093 32.7075 232.431 31.6916 235.585 31.0748L245.537 29.1701C245.537 26.9206 245.011 25.2517 243.96 24.1633C242.908 23.0385 241.349 22.4762 239.283 22.4762C237.434 22.4762 235.984 22.8934 234.933 23.7279C233.881 24.5261 233.156 25.7234 232.757 27.3197L226.83 26.9388C227.374 24.0363 228.715 21.7506 230.854 20.0816C233.029 18.4127 235.839 17.5782 239.283 17.5782C243.198 17.5782 246.171 18.6304 248.201 20.7347C250.268 22.8027 251.301 25.7234 251.301 29.4966V40.7619C251.301 41.4512 251.41 41.941 251.627 42.2313C251.881 42.4853 252.28 42.6122 252.823 42.6122H253.857V47.1837C253.675 47.22 253.385 47.2562 252.987 47.2925C252.588 47.3288 252.171 47.3469 251.736 47.3469C250.503 47.3469 249.434 47.1474 248.527 46.7483C247.657 46.3492 247.005 45.6961 246.57 44.7891C246.135 43.8458 245.917 42.5941 245.917 41.034L246.515 41.3061C246.225 42.576 245.591 43.7007 244.612 44.6803C243.67 45.6599 242.455 46.4399 240.969 47.0204C239.519 47.5646 237.942 47.8367 236.238 47.8367ZM237.162 43.2653C238.902 43.2653 240.389 42.9388 241.621 42.2857C242.854 41.5964 243.815 40.6531 244.503 39.4558C245.192 38.2585 245.537 36.898 245.537 35.3741V33.5238L237.053 35.1565C235.313 35.483 234.081 36.0091 233.356 36.7347C232.667 37.424 232.322 38.3129 232.322 39.4014C232.322 40.6349 232.739 41.5964 233.573 42.2857C234.443 42.9388 235.639 43.2653 237.162 43.2653Z" fill="black"/>
<path d="M257.636 47.1837V18.2313H262.911L263.128 25.9592L262.421 25.5782C262.748 23.6916 263.364 22.1678 264.27 21.0068C265.177 19.8458 266.282 18.9932 267.587 18.449C268.893 17.8685 270.306 17.5782 271.829 17.5782C274.004 17.5782 275.799 18.068 277.213 19.0476C278.663 19.9909 279.75 21.2971 280.475 22.966C281.237 24.5986 281.617 26.4671 281.617 28.5714V47.1837H275.853V30.3129C275.853 28.6077 275.672 27.1746 275.309 26.0136C274.947 24.8526 274.349 23.9637 273.515 23.3469C272.681 22.7302 271.593 22.4218 270.252 22.4218C268.222 22.4218 266.572 23.093 265.304 24.4354C264.035 25.7778 263.4 27.737 263.4 30.3129V47.1837H257.636Z" fill="black"/>
<path d="M299.949 47.8367C297.121 47.8367 294.674 47.22 292.608 45.9864C290.577 44.7528 289 42.9932 287.877 40.7075C286.789 38.4218 286.245 35.7551 286.245 32.7075C286.245 29.6599 286.789 27.0113 287.877 24.7619C289 22.4762 290.577 20.7166 292.608 19.483C294.638 18.2132 297.031 17.5782 299.786 17.5782C302.396 17.5782 304.698 18.195 306.692 19.4286C308.686 20.6258 310.227 22.3673 311.314 24.6531C312.438 26.9388 313 29.6961 313 32.9252V34.3946H292.227C292.372 37.2245 293.115 39.3469 294.457 40.7619C295.834 42.1769 297.683 42.8844 300.003 42.8844C301.707 42.8844 303.121 42.4853 304.245 41.6871C305.369 40.8889 306.148 39.8186 306.583 38.4762L312.565 38.8571C311.804 41.542 310.299 43.7188 308.051 45.3878C305.84 47.0204 303.139 47.8367 299.949 47.8367ZM292.227 30.0408H306.909C306.728 27.4649 305.985 25.5601 304.68 24.3265C303.411 23.093 301.78 22.4762 299.786 22.4762C297.719 22.4762 296.015 23.1293 294.674 24.4354C293.369 25.7052 292.553 27.5737 292.227 30.0408Z" fill="black"/>
</svg>
